Newaita/actions/symbolic/edit-tag-symbolic.svg

<svg height="16" viewBox="0 0 16 16" width="16" xmlns="http://www.w3.org/2000/svg"><path d="m1.480469 1.46875c-.007813.003906-.011719.007812-.015625.011719-.144532.152343-.207032.367187-.167969.570312l1.167969 6.316407c.027344.140624.09375.257812.183594.347656h-.003907l5.847657 5.847656c.261718.257812.675781.257812.9375 0l5.144531-5.144531c.257812-.261719.257812-.675781 0-.9375l-5.847657-5.847657v.003907c-.089843-.089844-.207031-.15625-.347656-.183594l-6.316406-1.167969c-.210938-.039062-.429688.027344-.582031.183594zm1.632812 1.632812c.519531-.519531 1.351563-.519531 1.871094 0 .519531.519532.519531 1.351563 0 1.871094-.519531.519532-1.351563.519532-1.871094 0-.519531-.519531-.519531-1.351562 0-1.871094zm0 0" fill="#424242"/></svg>

<?xml version="1.0" encoding="UTF-8"?>
<svg xmlns="http://www.w3.org/2000/svg" xmlns:xlink="http://www.w3.org/1999/xlink" width="16px" height="16px" viewBox="0 0 16 16" version="1.1">
<g id="surface1">
<path style=" stroke:none;fill-rule:nonzero;fill:rgb(25.882354%,25.882354%,25.882354%);fill-opacity:1;" d="M 1.480469 1.46875 C 1.472656 1.472656 1.46875 1.476562 1.464844 1.480469 C 1.320312 1.632812 1.257812 1.847656 1.296875 2.050781 L 2.464844 8.367188 C 2.492188 8.507812 2.558594 8.625 2.648438 8.714844 L 2.644531 8.714844 L 8.492188 14.5625 C 8.753906 14.820312 9.167969 14.820312 9.429688 14.5625 L 14.574219 9.417969 C 14.832031 9.15625 14.832031 8.742188 14.574219 8.480469 L 8.726562 2.632812 L 8.726562 2.636719 C 8.636719 2.546875 8.519531 2.480469 8.378906 2.453125 L 2.0625 1.285156 C 1.851562 1.246094 1.632812 1.3125 1.480469 1.46875 Z M 3.113281 3.101562 C 3.632812 2.582031 4.464844 2.582031 4.984375 3.101562 C 5.503906 3.621094 5.503906 4.453125 4.984375 4.972656 C 4.464844 5.492188 3.632812 5.492188 3.113281 4.972656 C 2.59375 4.453125 2.59375 3.621094 3.113281 3.101562 Z M 3.113281 3.101562 "/>
</g>
</svg>
